workspaces/osm/styles/symbols/shelter.svg

<?xml version="1.0" encoding="UTF-8" standalone="no"?>
<svg
   xmlns:dc="http://purl.org/dc/elements/1.1/"
   xmlns:cc="http://creativecommons.org/ns#"
   xmlns:rdf="http://www.w3.org/1999/02/22-rdf-syntax-ns#"
   xmlns:svg="http://www.w3.org/2000/svg"
   xmlns="http://www.w3.org/2000/svg"
   version="1.1"
   width="14"
   height="14"
   viewBox="0 0 14 14"
   id="svg2">
  <defs
     id="defs3053" />
  <metadata
     id="metadata8">
    <rdf:RDF>
      <cc:Work
         rdf:about="">
        <dc:format>image/svg+xml</dc:format>
        <dc:type
           rdf:resource="http://purl.org/dc/dcmitype/StillImage" />
        <dc:title></dc:title>
      </cc:Work>
    </rdf:RDF>
  </metadata>
  <rect
     width="14"
     height="14"
     x="0"
     y="0"
     id="canvas"
     style="fill:none;stroke:none;visibility:hidden" />
  <path
     id="rect4777"
     d="M 4.0078125 0 L 3.0078125 2 L 3.4765625 2 L 4.5234375 0 L 4.0078125 0 z M 8.0078125 0 L 7.0078125 2 L 7.4765625 2 L 8.5234375 0 L 8.0078125 0 z M 12.007812 0 L 11.007812 2 L 11.476562 2 L 12.523438 0 L 12.007812 0 z M 1 2 L 0 4 L 0.46875 4 L 1.5175781 2 L 1 2 z M 5.0078125 2 L 4.0078125 4 L 4.4765625 4 L 5.5234375 2 L 5.0078125 2 z M 9.0078125 2 L 8.0078125 4 L 8.4765625 4 L 9.5234375 2 L 9.0078125 2 z M 13.007812 2 L 12.007812 4 L 12.476562 4 L 13.523438 2 L 13.007812 2 z M 2.5 4 L 1.5 6 L 1.96875 6 L 3.0175781 4 L 2.5 4 z M 10.482422 4 L 9.4824219 6 L 9.9511719 6 L 11 4 L 10.482422 4 z M 7 5 L 0 9 L 2 9 L 3 8.5996094 L 3 13.482422 L 3 13.5 A 0.5 0.5 0 0 0 3.2402344 13.927734 A 0.5 0.5 0 0 0 3.7441406 13.935547 A 0.5 0.5 0 0 0 4 13.5 L 4 8.1992188 L 7 7 L 10 8.1992188 L 10 13.5 A 0.5 0.5 0 0 0 10.240234 13.927734 A 0.5 0.5 0 0 0 10.744141 13.935547 A 0.5 0.5 0 0 0 11 13.5 L 11 8.5996094 L 12 9 L 14 9 L 7 5 z "
     style="fill:#000000;fill-opacity:1;fill-rule:evenodd;stroke:none;stroke-opacity:1" />
</svg>

<svg width="14" height="14" version="1.1" viewBox="0 0 14 14" xmlns="http://www.w3.org/2000/svg"><rect id="a" width="14" height="14" fill="none" visibility="hidden"/><path d="m4.0078 0c-0.33333 0.66667-0.66667 1.3333-1 2h0.46875c0.34896-0.66667 0.69792-1.3333 1.0469-2h-0.51562zm4 0c-0.33333 0.66667-0.66667 1.3333-1 2h0.46875c0.34896-0.66667 0.69792-1.3333 1.0469-2h-0.51562zm4 0c-0.33333 0.66667-0.66667 1.3333-1 2h0.46875c0.34896-0.66667 0.69792-1.3333 1.0469-2h-0.51563zm-11.008 2c-0.33333 0.66667-0.66667 1.3333-1 2h0.46875c0.34961-0.66667 0.69922-1.3333 1.0488-2h-0.51758zm4.0078 0c-0.33333 0.66667-0.66667 1.3333-1 2h0.46875c0.34896-0.66667 0.69792-1.3333 1.0469-2h-0.51562zm4 0c-0.33333 0.66667-0.66667 1.3333-1 2h0.46875c0.34896-0.66667 0.69792-1.3333 1.0469-2h-0.51562zm4 0c-0.33333 0.66667-0.66667 1.3333-1 2h0.46875c0.34896-0.66667 0.69792-1.3333 1.0469-2h-0.51563zm-10.508 2c-0.33333 0.66667-0.66667 1.3333-1 2h0.46875c0.34961-0.66667 0.69922-1.3333 1.0488-2h-0.51758zm7.9824 0c-0.33333 0.66667-0.66667 1.3333-1 2h0.46875c0.34961-0.66667 0.69922-1.3333 1.0488-2h-0.51758zm-3.4824 1c-2.3333 1.3333-4.6667 2.6667-7 4h2c0.33333-0.13346 0.66667-0.26693 1-0.40039v4.9004c0.040912 0.8044 1.1577 0.48813 1-0.17819v-5.1226l3-1.1992 3 1.1992v5.3008c0.04091 0.8044 1.1577 0.48813 1-0.17819v-4.7222c0.34042 0.13094 0.67701 0.28174 1.0198 0.40039h1.9802c-2.3333-1.3333-4.6667-2.6667-7-4z" fill-rule="evenodd"/></svg>
